X:1
T:Light from the Tomb
T:Light from the Tomb
T:Joseph Lincoln Hall
T:Irvin H. Mack, 1900
T:Public Domain Courtesy of the Cyber Hymnal™
T:Public Domain Courtesy of the Cyber Hymnal™
C:Joseph Lincoln Hall
Z:Public Domain
Z:Courtesy of the Cyber Hymnal™
%%score ( 1 2 ) 3
L:1/8
Q:1/4=95
M:6/8
K:Eb
V:1 treble 
V:2 treble 
V:3 bass 
V:1
 [EG][EG][EG] [EG][DA][EB] | [DB]3 [DF]3 | [DA][DA][DA] [DA][DA][Dc] | [Ec]3 [EB]3 | %4
w: 1.~Bright is the beau- teous light|shin- ing,|Past is the hour of re-|pin- ing,|
w: 2.~Sor- row is turned in- to|sing- ing,|Joy bells their glad notes are|ring- ing,|
w: 3.~See from the tomb light is|break- ing,|See all a- round life is|wak- ing,|
 [Ge][Ge][Ge] [Ge][GB][GB] | [EB]3 [EA]2 [EA] | [EG]3 [DF]3 | E6 ||"^Refrain" G3 F2 E | G6 | %10
w: Come, all your sor- rows re-|sign- ing, For|Christ is|ris’n.|||
w: Hope in our hearts now is|spring- ing, For|Christ is|ris’n.|Light from the|tomb,|
w: Hope from the grave now be|tak- ing, For|Christ is|ris’n.|||
 A3 B2 c G6 | A3 B2 c | B2 G E2 G | G3 F2 E | [DF]6 | G3 F2 E | G6 |!ff! [Ge]3 [Ad]2 [Ac] | %18
w: ||||||||
w: past is its gloom,|Dark- ness is|fled, the day is|break- ing at|last.|See from the|grave,|He comes to|
w: ||||||||
 [DFABd]6 | [Ge]3 [EGB]2 [EGB] | [EGB]2 [EA] [EA]2 [EA] | G3 F3 | E6 |] %23
w: |||||
w: save,|Je- sus is|vic- tor o- ver|sin and|death.|
w: |||||
V:2
 x6 | x6 | x6 | x6 | x6 | x6 | x6 | E6 || x6 | x6 | x12 | x6 | x6 | x6 | x6 | x6 | x6 | x6 | x6 | %19
 x6 | x6 | (EEE) (DDD) | (EB,B, B,3) |] %23
V:3
 [E,B,][E,B,][E,B,] [E,B,][F,B,][G,B,] | [A,B,]3 [A,B,]3 | %2
 [F,B,][F,B,][F,B,] [B,,B,][B,,A,][B,,A,] | [E,A,]3 [E,G,]3 | %4
 [E,B,][E,B,][E,B,] [E,B,][E,_D][E,D] | [A,_D]3 [A,C]2 [C,C] | [B,,B,]3 [B,,A,]3 | [E,G,]6 || %8
 ([E,G,B,][E,G,B,][E,G,B,]) ([E,A,B,][E,A,B,])[E,A,B,] | %9
 ([E,G,B,][E,G,B,][E,G,B,][E,G,B,][E,G,B,][E,G,B,]) | %10
 ([E,A,C][E,A,C][E,A,C]) ([E,A,C][E,A,C])[E,A,C] ([E,G,B,][E,G,B,][E,G,B,][E,G,B,][E,G,B,][E,G,B,]) | %11
 ([E,A,C][E,A,C][E,A,C]) ([E,A,C][E,A,C])[E,A,C] | %12
 ([E,G,B,][E,G,B,])[E,G,B,] ([E,G,B,][E,G,B,])[E,G,B,] | %13
 ([C,F,=A,][C,F,A,][C,F,A,]) ([C,F,A,][C,F,A,])[C,F,A,] | %14
 ([B,,F,A,][B,,F,A,][B,,F,A,][B,,F,A,][B,,F,A,][B,,F,A,]) | %15
 ([E,G,B,][E,G,B,][E,G,B,]) ([E,A,B,][E,A,B,])[E,A,B,] | %16
 ([E,G,B,][E,G,B,][E,G,B,][E,G,B,][E,G,B,][E,G,B,]) | ([E,B,][E,B,][E,B,]) ([E,B,][E,B,])[E,B,] | %18
 ([B,,B,][B,,B,][B,,B,]B,[A,B,][F,B,]) | ([E,B,][E,B,][E,B,]) ([E,_D][E,D])[E,D] | %20
 ([A,_D][A,D])[A,C] ([A,C][A,C])[A,,C] | ([B,,B,][B,,B,][B,,B,]) ([B,,A,][B,,A,][B,,A,]) | %22
 ([E,G,][E,G,][E,G,] [E,G,]3) |] %23

